build/flags/Lesotho.svg

<svg xmlns="http://www.w3.org/2000/svg" fill="none" viewBox="0 0 28 28" focusable="false"><defs><filter id="Lesotho_svg__a"><feColorMatrix values="0 0 0 0 1 0 0 0 0 1 0 0 0 0 1 0 0 0 1 0"/></filter></defs><mask id="Lesotho_svg__b" width="28" height="20" x="0" y="4" maskUnits="userSpaceOnUse"><g filter="url(#Lesotho_svg__a)"><rect width="28" height="20" y="4" fill="#FFF" rx="3"/><rect width="27.5" height="19.5" x=".25" y="4.25" stroke="#F5F5F5" stroke-width=".5" rx="2.75"/></g></mask><path fill="none" d="M0 0H28V28H0z"/><rect width="28" height="20" y="4" fill="#FFF" rx="3"/><rect width="27.5" height="19.5" x=".25" y="4.25" stroke="#D6D8DD" stroke-width=".5" rx="2.75"/><g mask="url(#Lesotho_svg__b)"><path fill="#0C33B8" fill-rule="evenodd" d="M0 10.6667L28 10.6667L28 4L0 4L0 10.6667Z"/><path d="M28 10.6667L28 4L0 4L0 10.6667L28 10.6667Z"/><path fill="#1DB158" fill-rule="evenodd" d="M0 24L28 24L28 17.3333L0 17.3333L0 24Z"/><path d="M28 24L28 17.3333L0 17.3333L0 24L28 24Z"/><path fill="#262626" fill-rule="evenodd" d="M13.3333 14L13.3675 13.8974C13.5701 13.2896 14.4298 13.2896 14.6324 13.8974L14.6667 14L15.8484 15.7726C15.9365 15.9048 15.9172 16.0791 15.7853 16.1678C15.4916 16.3653 14.8965 16.6667 14 16.6667C13.1035 16.6667 12.5084 16.3653 12.2147 16.1678C12.0828 16.0791 12.0634 15.9048 12.1516 15.7726L13.3333 14Z"/><path d="M13.3675 13.8974C13.5701 13.2896 14.4298 13.2896 14.6324 13.8974L14.6667 14L15.8484 15.7726C15.9365 15.9048 15.9168 16.0794 15.7849 16.168C15.491 16.3655 14.8961 16.6667 14 16.6667C13.1039 16.6667 12.5089 16.3655 12.2151 16.168C12.0832 16.0794 12.0634 15.9048 12.1516 15.7726L13.3333 14L13.3675 13.8974Z"/><path fill="none" d="M14 14C14.7364 14 15.3333 13.403 15.3333 12.6666C15.3333 11.9303 14.7364 11.3333 14 11.3333C13.2636 11.3333 12.6667 11.9303 12.6667 12.6666C12.6667 13.403 13.2636 14 14 14Z"/><path fill="#262626" fill-rule="evenodd" d="M15.3333 12.6666C15.3333 13.403 14.7364 14 14 14C13.2636 14 12.6667 13.403 12.6667 12.6666C12.6667 11.9303 13.2636 11.3333 14 11.3333C14.7364 11.3333 15.3333 11.9303 15.3333 12.6666ZM14.6178 12.4107C14.6504 12.4893 14.6667 12.5746 14.6667 12.6666C14.6667 12.7587 14.6504 12.844 14.6178 12.9226C14.5853 13.0011 14.5365 13.073 14.4714 13.1381C14.4063 13.2031 14.3345 13.252 14.2559 13.2845C14.1773 13.317 14.092 13.3333 14 13.3333C13.9079 13.3333 13.8226 13.317 13.7441 13.2845C13.6655 13.252 13.5937 13.2031 13.5286 13.1381C13.4635 13.073 13.4147 13.0011 13.3821 12.9226C13.3496 12.844 13.3333 12.7587 13.3333 12.6666C13.3333 12.5746 13.3496 12.4893 13.3821 12.4107C13.4147 12.3322 13.4635 12.2603 13.5286 12.1952C13.5937 12.1302 13.6655 12.0813 13.7441 12.0488C13.8226 12.0163 13.9079 12 14 12C14.092 12 14.1773 12.0163 14.2559 12.0488C14.3345 12.0813 14.4063 12.1302 14.4714 12.1952C14.5365 12.2603 14.5853 12.3322 14.6178 12.4107Z"/></g></svg>

<svg xmlns="http://www.w3.org/2000/svg" fill="none" viewBox="0 0 28 28" focusable="false"><path fill="none" d="M0 0h28v28H0z"/><rect width="28" height="20" y="4" fill="#FFF" rx="3"/><rect width="27.5" height="19.5" x=".25" y="4.25" stroke="#D6D8DD" stroke-width=".5" rx="3"/><mask id="Lesotho_svg__a" width="28" height="20" x="0" y="4" mask-type="alpha" maskUnits="userSpaceOnUse"><rect width="28" height="20" y="4" fill="#FFF" rx="3"/><rect width="27.5" height="19.5" x=".25" y="4.25" stroke="#F5F5F5" stroke-width=".5" rx="3"/></mask><g mask="url(#Lesotho_svg__a)"><path fill="#0C33B8" fill-rule="evenodd" d="M0 10.66h28V4H0z"/><path d="M28 10.66V4H0v6.66z"/></g><g mask="url(#Lesotho_svg__a)"><path fill="#1DB158" fill-rule="evenodd" d="M0 24h28v-6.67H0z"/><path d="M28 24v-6.67H0V24z"/></g><g mask="url(#Lesotho_svg__a)"><path fill="#262626" fill-rule="evenodd" d="m13.33 14 .03-.11a.67.67 0 0 1 1.27 0l.03.11 1.18 1.77c.09.13.07.3-.06.39-.29.2-.89.5-1.78.5-.9 0-1.5-.3-1.79-.5-.13-.09-.15-.26-.06-.39z"/><path d="M13.36 13.89a.67.67 0 0 1 1.27 0l.03.11 1.18 1.77c.09.13.07.3-.06.39-.29.2-.89.5-1.78.5-.9 0-1.5-.3-1.79-.5-.13-.09-.15-.26-.06-.39L13.33 14z"/></g><g mask="url(#Lesotho_svg__a)"><path fill="none" d="M14 14a1.336 1.336 0 1 0-1.34-1.34c0 .74.6 1.34 1.34 1.34"/><path fill="#262626" fill-rule="evenodd" d="M15.33 12.66c0 .74-.6 1.34-1.33 1.34-.74 0-1.34-.6-1.34-1.34a1.336 1.336 0 0 1 2.67 0m-.72-.25q.05.11.05.25t-.05.26-.14.21q-.1.1-.22.15t-.25.05q-.14 0-.26-.05t-.22-.15q-.09-.09-.14-.21t-.05-.26.05-.25q.05-.12.14-.22.1-.1.22-.15.12-.04.26-.04.13 0 .25.04.12.05.22.15.09.1.14.22"/></g></svg>
